src/app/components/images/starConstellation.svg

<svg  viewBox="0 0 339 124" fill="none" xmlns="http://www.w3.org/2000/svg">
<mask id="mask0_5_34" style="mask-type:alpha" maskUnits="userSpaceOnUse" x="124" y="3" width="91" height="85">
<path d="M166.899 4.52272C168.053 2.51667 170.947 2.51667 172.101 4.52271L184.849 26.6922C185.281 27.4437 186.017 27.9715 186.867 28.1397L212.222 33.1541C214.532 33.6111 215.439 36.4312 213.828 38.1494L196.39 56.7422C195.785 57.3876 195.495 58.2671 195.599 59.1458L198.564 84.2925C198.837 86.6066 196.482 88.3347 194.356 87.381L170.728 76.7809C169.947 76.4304 169.053 76.4304 168.272 76.7809L144.644 87.381C142.518 88.3347 140.163 86.6065 140.436 84.2925L143.401 59.1458C143.505 58.2671 143.215 57.3876 142.61 56.7422L125.172 38.1494C123.561 36.4312 124.468 33.6111 126.778 33.1541L152.133 28.1397C152.983 27.9715 153.719 27.4437 154.151 26.6922L166.899 4.52272Z" fill="#F0ED35"/>
</mask>
<g mask="url(#mask0_5_34)">
<rect x="114" width="121" height="99" fill="#F7FC1E"/>
<path d="M246.5 4C208.536 46.7429 147.5 99 143.5 61L140 91L244 87.549L246.5 4Z" fill="#F2E03F"/>
</g>
<mask id="mask1_5_34" style="mask-type:alpha" maskUnits="userSpaceOnUse" x="56" y="36" width="69" height="64">
<path d="M87.9122 38.4123C89.0714 36.4359 91.9286 36.4359 93.0878 38.4123L102.034 53.6665C102.47 54.4099 103.205 54.9299 104.051 55.0939L121.719 58.5199C124.05 58.9718 124.957 61.8233 123.316 63.5388L111.252 76.1497C110.632 76.7983 110.335 77.6906 110.442 78.5817L112.502 95.7117C112.779 98.0185 110.442 99.7515 108.315 98.816L91.7079 91.5113C90.9382 91.1727 90.0618 91.1727 89.2921 91.5113L72.6846 98.816C70.5579 99.7515 68.2208 98.0185 68.4982 95.7117L70.5583 78.5817C70.6654 77.6906 70.368 76.7983 69.7476 76.1497L57.6842 63.5388C56.0433 61.8233 56.9505 58.9718 59.281 58.5199L76.9491 55.0939C77.7951 54.9299 78.5298 54.4099 78.9658 53.6665L87.9122 38.4123Z" fill="#F0ED35"/>
</mask>
<g mask="url(#mask1_5_34)">
<rect x="48.1881" y="34" width="92.2475" height="74" fill="#F7FC1E"/>
<path d="M149.203 36.9899C120.26 68.9391 73.7277 108 70.6782 79.5959L68.0099 102.02L147.297 99.4407L149.203 36.9899Z" fill="#F2E03F"/>
</g>
<mask id="mask2_5_34" style="mask-type:alpha" maskUnits="userSpaceOnUse" x="4" y="63" width="55" height="53">
<path d="M28.8767 64.728C30.0193 62.6687 32.9807 62.6687 34.1233 64.728L40.8289 76.8138C41.2537 77.5795 41.9919 78.1214 42.8498 78.2972L56.3101 81.0562C58.5852 81.5226 59.4904 84.2861 57.9321 86.0081L48.5871 96.3347C48.0088 96.9737 47.7333 97.8305 47.8307 98.6867L49.4106 112.574C49.6754 114.902 47.2894 116.621 45.165 115.633L32.7648 109.868C31.9628 109.495 31.0372 109.495 30.2352 109.868L17.835 115.633C15.7106 116.621 13.3246 114.902 13.5894 112.574L15.1693 98.6867C15.2667 97.8305 14.9912 96.9737 14.4129 96.3347L5.06794 86.0081C3.50961 84.2861 4.41481 81.5226 6.68995 81.0562L20.1502 78.2972C21.0081 78.1214 21.7463 77.5795 22.1711 76.8138L28.8767 64.728Z" fill="#F0ED35"/>
</mask>
<g mask="url(#mask2_5_34)">
<rect x="-3.11881" y="60" width="75.4753" height="64" fill="#F7FC1E"/>
<path d="M79.5297 62.5859C55.8494 90.2176 17.7772 124 15.2822 99.4343L13.099 118.828L77.9703 116.597L79.5297 62.5859Z" fill="#F2E03F"/>
</g>
<mask id="mask3_5_34" style="mask-type:alpha" maskUnits="userSpaceOnUse" x="280" y="63" width="55" height="53">
<path d="M304.877 64.728C306.019 62.6687 308.981 62.6687 310.123 64.728L316.829 76.8138C317.254 77.5795 317.992 78.1214 318.85 78.2972L332.31 81.0562C334.585 81.5226 335.49 84.2861 333.932 86.0081L324.587 96.3347C324.009 96.9737 323.733 97.8305 323.831 98.6867L325.411 112.574C325.675 114.902 323.289 116.621 321.165 115.633L308.765 109.868C307.963 109.495 307.037 109.495 306.235 109.868L293.835 115.633C291.711 116.621 289.325 114.902 289.589 112.574L291.169 98.6867C291.267 97.8305 290.991 96.9737 290.413 96.3347L281.068 86.0081C279.51 84.2861 280.415 81.5226 282.69 81.0562L296.15 78.2972C297.008 78.1214 297.746 77.5795 298.171 76.8138L304.877 64.728Z" fill="#F0ED35"/>
</mask>
<g mask="url(#mask3_5_34)">
<rect x="272.881" y="60" width="75.4753" height="64" fill="#F7FC1E"/>
<path d="M355.53 62.5859C331.849 90.2176 293.777 124 291.282 99.4343L289.099 118.828L353.97 116.597L355.53 62.5859Z" fill="#F2E03F"/>
</g>
<mask id="mask4_5_34" style="mask-type:alpha" maskUnits="userSpaceOnUse" x="213" y="36" width="69" height="64">
<path d="M244.912 38.4123C246.071 36.4359 248.929 36.4359 250.088 38.4123L259.034 53.6665C259.47 54.4099 260.205 54.9299 261.051 55.0939L278.719 58.5199C281.05 58.9718 281.957 61.8233 280.316 63.5388L268.252 76.1497C267.632 76.7983 267.335 77.6906 267.442 78.5817L269.502 95.7117C269.779 98.0185 267.442 99.7515 265.315 98.816L248.708 91.5113C247.938 91.1727 247.062 91.1727 246.292 91.5113L229.685 98.816C227.558 99.7515 225.221 98.0185 225.498 95.7117L227.558 78.5817C227.665 77.6906 227.368 76.7983 226.748 76.1497L214.684 63.5388C213.043 61.8233 213.95 58.9718 216.281 58.5199L233.949 55.0939C234.795 54.9299 235.53 54.4099 235.966 53.6665L244.912 38.4123Z" fill="#F0ED35"/>
</mask>
<g mask="url(#mask4_5_34)">
<rect x="205.188" y="34" width="92.2475" height="74" fill="#F7FC1E"/>
<path d="M306.203 36.9899C277.26 68.9391 230.728 108 227.678 79.5959L225.01 102.02L304.297 99.4407L306.203 36.9899Z" fill="#F2E03F"/>
</g>
</svg>

<svg viewBox="0 0 339 124" fill="none" xmlns="http://www.w3.org/2000/svg"><mask id="a" style="mask-type:alpha" maskUnits="userSpaceOnUse" x="124" y="3" width="91" height="85"><path d="M166.899 4.523c1.154-2.006 4.048-2.006 5.202 0l12.748 22.17a3 3 0 0 0 2.018 1.447l25.355 5.014c2.31.457 3.217 3.277 1.606 4.995L196.39 56.742a3 3 0 0 0-.791 2.404l2.965 25.147c.273 2.314-2.082 4.042-4.208 3.088l-23.628-10.6a3 3 0 0 0-2.456 0l-23.628 10.6c-2.126.954-4.481-.775-4.208-3.088l2.965-25.147a3 3 0 0 0-.791-2.404L125.172 38.15c-1.611-1.718-.704-4.538 1.606-4.995l25.355-5.014a3 3 0 0 0 2.018-1.448l12.748-22.17z" fill="#F0ED35"/></mask><g mask="url(#a)"><path fill="#F7FC1E" d="M114 0h121v99H114z"/><path d="M246.5 4c-37.964 42.743-99 95-103 57L140 91l104-3.451L246.5 4z" fill="#F2E03F"/></g><mask id="b" style="mask-type:alpha" maskUnits="userSpaceOnUse" x="56" y="36" width="69" height="64"><path d="M87.912 38.412c1.16-1.976 4.017-1.976 5.176 0l8.946 15.255a3 3 0 0 0 2.017 1.427l17.668 3.426c2.331.452 3.238 3.303 1.597 5.019l-12.064 12.61a3.002 3.002 0 0 0-.81 2.433l2.06 17.13c.277 2.306-2.06 4.04-4.187 3.104l-16.607-7.305a3 3 0 0 0-2.416 0l-16.607 7.305c-2.127.935-4.464-.797-4.187-3.104l2.06-17.13a3 3 0 0 0-.81-2.432L57.684 63.539c-1.64-1.716-.733-4.567 1.597-5.02l17.668-3.425a3 3 0 0 0 2.017-1.428l8.946-15.254z" fill="#F0ED35"/></mask><g mask="url(#b)"><path fill="#F7FC1E" d="M48.188 34h92.248v74H48.188z"/><path d="M149.203 36.99C120.26 68.94 73.728 108 70.678 79.596L68.01 102.02l79.287-2.58 1.906-62.45z" fill="#F2E03F"/></g><mask id="c" style="mask-type:alpha" maskUnits="userSpaceOnUse" x="4" y="63" width="55" height="53"><path d="M28.877 64.728c1.142-2.06 4.104-2.06 5.246 0l6.706 12.086a3 3 0 0 0 2.02 1.483l13.461 2.76c2.275.466 3.18 3.23 1.622 4.951l-9.345 10.327a3 3 0 0 0-.756 2.352l1.58 13.887c.264 2.328-2.122 4.047-4.246 3.059l-12.4-5.765a3 3 0 0 0-2.53 0l-12.4 5.765c-2.124.988-4.51-.731-4.246-3.059l1.58-13.887a3 3 0 0 0-.756-2.352L5.068 86.008c-1.558-1.722-.653-4.485 1.622-4.952l13.46-2.759a3 3 0 0 0 2.021-1.483l6.706-12.086z" fill="#F0ED35"/></mask><g mask="url(#c)"><path fill="#F7FC1E" d="M-3.119 60h75.475v64H-3.119z"/><path d="M79.53 62.586C55.85 90.218 17.777 124 15.282 99.434L13.1 118.828l64.871-2.231 1.56-54.011z" fill="#F2E03F"/></g><mask id="d" style="mask-type:alpha" maskUnits="userSpaceOnUse" x="280" y="63" width="55" height="53"><path d="M304.877 64.728c1.142-2.06 4.104-2.06 5.246 0l6.706 12.086a3 3 0 0 0 2.021 1.483l13.46 2.76c2.275.466 3.18 3.23 1.622 4.951l-9.345 10.327a2.998 2.998 0 0 0-.756 2.352l1.58 13.887c.264 2.328-2.122 4.047-4.246 3.059l-12.4-5.765a3 3 0 0 0-2.53 0l-12.4 5.765c-2.124.988-4.51-.731-4.246-3.059l1.58-13.887a2.998 2.998 0 0 0-.756-2.352l-9.345-10.327c-1.558-1.722-.653-4.485 1.622-4.952l13.46-2.759a3 3 0 0 0 2.021-1.483l6.706-12.086z" fill="#F0ED35"/></mask><g mask="url(#d)"><path fill="#F7FC1E" d="M272.881 60h75.475v64h-75.475z"/><path d="M355.53 62.586C331.849 90.218 293.777 124 291.282 99.434l-2.183 19.394 64.871-2.231 1.56-54.011z" fill="#F2E03F"/></g><mask id="e" style="mask-type:alpha" maskUnits="userSpaceOnUse" x="213" y="36" width="69" height="64"><path d="M244.912 38.412c1.159-1.976 4.017-1.976 5.176 0l8.946 15.255a3 3 0 0 0 2.017 1.427l17.668 3.426c2.331.452 3.238 3.303 1.597 5.019l-12.064 12.61a3.002 3.002 0 0 0-.81 2.433l2.06 17.13c.277 2.306-2.06 4.04-4.187 3.104l-16.607-7.305a3 3 0 0 0-2.416 0l-16.607 7.305c-2.127.935-4.464-.797-4.187-3.104l2.06-17.13a3.002 3.002 0 0 0-.81-2.432l-12.064-12.611c-1.641-1.716-.734-4.567 1.597-5.02l17.668-3.425a3 3 0 0 0 2.017-1.428l8.946-15.254z" fill="#F0ED35"/></mask><g mask="url(#e)"><path fill="#F7FC1E" d="M205.188 34h92.248v74h-92.248z"/><path d="M306.203 36.99C277.26 68.94 230.728 108 227.678 79.596l-2.668 22.424 79.287-2.58 1.906-62.45z" fill="#F2E03F"/></g></svg>
